X:108
T:Lady Isabel and the Elf Knight
C:Trad
B:Bronson
O:Sharp MSS., 426I/. Sung by Mrs. Elizabeth M. Berry,
O:Nellysford, Va., May 2I, I908.
M:4/4
L:1/4
K:Gmix % Pentatonic ( -4 -7) Lydian/Ionian/Mixolydian [Pi 1]
G | A B d d | A/B/ A G G |
w:Come sit you down, my pret-ty Pol-ly, Come
A A/B/ d B | A3 G | A A/B/ d d |
w:sit you* down by me; I'm all to* talk to
A/B/ A G A/B/ | A > B G E | D E G B |
w:you,* you, you, I'm* all to talk to you, you, you, I'm
A > B G E | D3 B | A > B G G/E/ |
w:all to talk to you. I'm all to talk to*
G A/E/ G B | A > B G E | D3 |]
w:you, you,* you, I'm all to talk to you.
W:
W:Come sit you down, my pretty Polly,
W:Come sit you down by me;
W:I'm all to talk to you, you, you,
W:I'm all to talk to you, you, you,
W:I'm all to talk to you.
W:I'm all to talk to you, you, you,
W:I'm all to talk to you.
